X: 38
M: C
L: 1/8
K: D
|:\
(vAB)cd (e2f2) | d2d>d d2(fe) | (dc)BA (AB)cA | B2E>E E2(ec) |
(dc)BA (AB)cA | d2d>d d2(fe) | (dc)BA ((3Bcd) c2B2 | A2A<B A4 :|
|:\
ve(ucAc) e(cAc) | f(dBd) f(dBd) | A(FDF) A(FDF) | B(GEG) B(GE2) |
e(cAc) ecef | d2dd d2(fe) | dcBA ((3Bcd) cB | A2A<B A4 :|
dere wis keepit very little flour or aetmael.  Folk grund dir
bere and aets in mills.  Dey wir two kinds:  da haand mill it
dey wid grind maist o' da night.  Dis t\"un wis made up be some een
ta eemitate da motion o' da mill an du can hear foo sh\"u rins roond
an roond an sometimes seems to haver when shu gits ower muckle
coarn.  Nea doobt dey wir mony mill t\"uns in Shetland at ee time
an we're still finnin dem here an dere.  In Norrawa dey hed mill
t\"uns as weel, an dey still mind a lok o' dem.


